X: 37615
T: Snake In The Bush
R: reel
M: 4/4
K: Eminor
e2 ed BAGB|AGFA GE E2|e2 ed BAGB|ABde gagf|
e2 ed BAGB|AGFA GE E2|EFGA BAGB|1 ABde gagf:|2 ABde fgab||
|:ge (3eee gebe|fd (3ddd fgab|ge (3eee gebe|fede fgab|
ge (3eee gebe|fd (3ddd fga(b|b)gaf gfed|1 Bdef gaba:|2 Bdef gagf|e8||

